www/assets/icons/room_preferences.svg

<svg width="24" height="24" viewBox="0 0 24 24" xmlns="http://www.w3.org/2000/svg" fill='currentColor'><path d="M13.085 10.76V5.5H16.085V9.5H18.085V3.5H13.085V2.5H4.08502V18.5H2.08502V20.5H11.345C10.555 19.37 10.085 17.99 10.085 16.5C10.085 14.12 11.275 12.03 13.085 10.76ZM9.08502 10.5H11.085V12.5H9.08502V10.5ZM20.775 15.87L21.915 14.87L20.915 13.14L19.465 13.63C19.145 13.36 18.785 13.15 18.385 13L18.085 11.5H16.085L15.785 12.99C15.385 13.14 15.025 13.35 14.705 13.62L13.255 13.13L12.255 14.86L13.395 15.86C13.315 16.36 13.315 16.62 13.395 17.12L12.255 18.12L13.255 19.85L14.705 19.36C15.025 19.63 15.385 19.84 15.785 19.99L16.085 21.5H18.085L18.385 20.01C18.785 19.86 19.145 19.65 19.465 19.38L20.915 19.87L21.915 18.14L20.775 17.14C20.855 16.63 20.855 16.37 20.775 15.87ZM17.085 18.5C15.985 18.5 15.085 17.6 15.085 16.5C15.085 15.4 15.985 14.5 17.085 14.5C18.185 14.5 19.085 15.4 19.085 16.5C19.085 17.6 18.185 18.5 17.085 18.5Z"/></svg>

<svg xmlns="http://www.w3.org/2000/svg" width="24" height="24" viewBox="0 0 24 24" fill='currentColor'><path d="M13.085 10.76V5.5h3v4h2v-6h-5v-1h-9v16h-2v2h9.26a6.96 6.96 0 0 1-1.26-4c0-2.38 1.19-4.47 3-5.74m-4-.26h2v2h-2zm11.69 5.37 1.14-1-1-1.73-1.45.49q-.48-.405-1.08-.63l-.3-1.5h-2l-.3 1.49q-.6.225-1.08.63l-1.45-.49-1 1.73 1.14 1c-.08.5-.08.76 0 1.26l-1.14 1 1 1.73 1.45-.49q.48.405 1.08.63l.3 1.51h2l.3-1.49q.6-.225 1.08-.63l1.45.49 1-1.73-1.14-1c.08-.51.08-.77 0-1.27m-3.69 2.63c-1.1 0-2-.9-2-2s.9-2 2-2 2 .9 2 2-.9 2-2 2"/></svg>
